img/social-page/decor-1.svg

<svg width="186" height="151" viewBox="0 0 186 151" fill="none" xmlns="http://www.w3.org/2000/svg">
<path d="M3.10927 5.29752C5.09024 2.43332 8.26069 0.690362 12.0375 0.388855C14.0905 0.224964 16.3001 0.483919 18.6038 1.16104L175.405 47.1777C183.726 49.6189 185.183 54.1629 185.311 56.6542C185.44 59.1454 184.456 63.8151 176.429 67.0971C176.381 67.1161 176.332 67.1352 176.284 67.1528L145.445 78.717L132.278 128.955C130.483 135.804 125.589 140.361 119.506 140.846C115.67 141.152 111.769 139.844 108.223 137.065L87.2646 120.623L60.7718 145.715C60.7693 145.718 60.7652 145.719 60.7627 145.722L60.5112 145.961C60.4881 145.982 60.4637 146.005 60.4405 146.026C57.4883 148.722 54.156 150.287 50.8003 150.556L50.7989 150.556C44.2422 151.08 38.6333 146.636 36.512 139.237L1.74031 17.9545C0.344191 13.0864 0.830035 8.59186 3.10927 5.29752ZM134.749 77.8419L71.3705 51.5522L112.506 88.869C113.18 89.4799 113.685 90.2537 113.972 91.1167L123.651 120.188L134.749 77.8419ZM114.739 128.736C115.01 128.948 115.281 129.135 115.55 129.305L106.57 102.337L95.0262 113.271L114.739 128.736ZM11.8957 15.0361L46.6675 136.32C47.0017 137.481 47.9875 140.165 49.9582 140.008C50.9319 139.93 52.1128 139.301 53.2878 138.235L83.308 109.804C83.3117 109.799 83.3169 109.795 83.3222 109.792L101.185 92.8727L41.6969 38.9078C39.7924 37.1803 39.4049 34.3324 40.7785 32.158C42.1534 29.9834 44.89 29.1154 47.2638 30.1006L141.128 69.0362L172.387 57.3169L15.6341 11.3143C14.3099 10.9253 13.4048 10.8939 12.8795 10.9358C12.5572 10.9615 11.9871 11.0458 11.7954 11.325C11.543 11.6893 11.2795 12.8837 11.8957 15.0361Z" fill="url(#paint0_linear_719_832)"/>
<defs>
<linearGradient id="paint0_linear_719_832" x1="-42.2342" y1="252.752" x2="-137.873" y2="16.1286" gradientUnits="userSpaceOnUse">
<stop offset="0.14832" stop-color="#4E9CDB"/>
<stop offset="0.363414" stop-color="#5761D7" stop-opacity="0.67"/>
<stop offset="0.691699" stop-color="#6548D8" stop-opacity="0.26"/>
<stop offset="0.9999" stop-color="#7628DA" stop-opacity="0.34"/>
</linearGradient>
</defs>
</svg>

<svg width="186" height="151" viewBox="0 0 186 151" fill="none" xmlns="http://www.w3.org/2000/svg"><path d="M3.11 5.298C5.09 2.433 8.26.69 12.036.388c2.053-.163 4.263.096 6.567.773l156.801 46.017c8.321 2.44 9.778 6.985 9.906 9.476.129 2.491-.855 7.161-8.882 10.443a6.154 6.154 0 01-.145.056l-30.839 11.564-13.167 50.238c-1.795 6.849-6.689 11.406-12.772 11.891-3.836.306-7.737-1.002-11.283-3.781l-20.958-16.442-26.493 25.092-.01.007-.25.239-.072.065c-2.952 2.696-6.284 4.261-9.64 4.53h.001c-6.557.524-12.166-3.92-14.287-11.319L1.74 17.955C.344 13.085.83 8.591 3.11 5.297zm131.639 72.544l-63.378-26.29 41.135 37.317a5.284 5.284 0 011.466 2.248l9.679 29.071 11.098-42.346zm-20.01 50.894c.271.212.542.399.811.569l-8.98-26.968-11.544 10.934 19.713 15.465zM11.896 15.036L46.667 136.32c.335 1.161 1.32 3.845 3.291 3.688.974-.078 2.155-.707 3.33-1.773l30.02-28.431a.045.045 0 01.014-.012l17.863-16.92-59.488-53.964a5.296 5.296 0 01-.919-6.75 5.278 5.278 0 016.486-2.057l93.864 38.935 31.259-11.72L15.634 11.315c-1.324-.389-2.23-.42-2.755-.378-.322.025-.892.11-1.084.389-.252.364-.515 1.559.1 3.711z" fill="url(#paint0_linear_719_832)"/><defs><linearGradient id="paint0_linear_719_832" x1="-42.234" y1="252.752" x2="-137.873" y2="16.129" gradientUnits="userSpaceOnUse"><stop offset=".148" stop-color="#4E9CDB"/><stop offset=".363" stop-color="#5761D7" stop-opacity=".67"/><stop offset=".692" stop-color="#6548D8" stop-opacity=".26"/><stop offset="1" stop-color="#7628DA" stop-opacity=".34"/></linearGradient></defs></svg>
